X:1
T:God’s Anvil
T:God’s Anvil 
T:Anonymous, before 1886
T:Julius Carl Reinhold Sturm (1816-1896)
T:Public Domain Courtesy of the Cyber Hymnal™
T:Public Domain Courtesy of the Cyber Hymnal™
C:Anonymous, before 1886
Z:Public Domain
Z:Courtesy of the Cyber Hymnal™
%%score ( 1 2 ) ( 3 4 )
L:1/8
Q:1/4=95
M:4/4
K:G
V:1 treble 
V:2 treble 
V:3 bass 
V:4 bass 
V:1
 D2 [GB][GB] [GB][GB] [Gc]2 [GB]2 | [GB][FA] z4 [FA]2 | [FA][FA][FA][FA] [Fd]2 [Ac]2 | [GB]6 G2 | %4
w: 1.~Pain’s fur- nace heat with- in me|quiv- ers, God’s|breath up- on the flame doth|blow, And|
w: 2.~He comes and lays my heart all|heat- ed, On|His hard an- vil, mind- ed|so; Yet|
w: 3.~He takes my soft- ened heart and|beats it; The|sparks fly off at ev- ery|blow; He|
w: 4.~He kin- dles for my pro- fit,|pure- ly, Af-|flict- ion’s glow- ing, fier- y|brand; For|
w: 5.~I will not mur- mur at the|sor- row That|on- ly long- er lived would|be; The|
 [GB][GB][GB][GB] [Gc]2 [GB]2 | [GB][FA] z4 D2 | [FA][FA][FA][FA] [GB]2 [FA]2 | G6 x2 || %8
w: all my heart in an- guish|shiv- ers, And|trem- bles at the fier- y|glow.|
w: in His own fair form to|beat it With|His great ham- mer, blow by|blow.|
w: turns it o’er and o’er and|beats it, And|lets it cool, and makes it|glow.|
w: all His heav- iest blows are|sure- ly In-|flict- ed by a mas- ter|hand.|
w: end may come, and that to-|mor- row, When|God hath wrought His will in|me.|
"^Refrain" [B,D]2 x4 | [CE]2 [CE]2 [Ec] [Ec]3 | [B,D]2 [B,D]2 [DB]2 z [DG] | %11
w: |||
w: |||
w: And|yet I whis- per,|“As God wills,” And|
w: |||
w: |||
 [DA][DA][DA][DA] [DB]2 [DA]2 | (Bd- d4) [B,D]2 | [CE]2 [CE]2 [Ec] [Ec]3 | [DB]2 [DB]2 [Dd]3 [DG] | %15
w: ||||
w: ||||
w: in His hot- test fire hold|still; * * And|yet I whis- per,|“As God wills,” And|
w: ||||
w: ||||
 [DA][DA][DA][DA] [Dc]2 [DF]2 | [DG]6 x2 |] x6 |] %18
w: |||
w: |||
w: in His hot- test fire hold|still.||
w: |||
w: |||
V:2
 D2 x8 | x8 | x8 | x6 G2 | x8 | x6 D2 | x8 | G6 x2 || x6 | x8 | x8 | x8 | D6 x2 | x8 | x8 | x8 | %16
 x8 |] x6 |] %18
V:3
 [G,B,]2 x8 | [G,D][G,D][G,D][G,D] [G,E]2 [G,D]2 | [D,D][D,D] z4 [D,D]2 | %3
 [D,D][D,D][D,D][D,D] [D,A,]2 [D,D]2 | [G,D]6 [G,B,]2 | [G,D][G,D][G,D][G,D] [G,E]2 [G,D]2 | %6
 [D,D][D,D] z4 [D,D]2 | [D,D][D,D][D,D][D,D] [D,D]2 [D,C]2 || [G,B,]6 | [G,,G,]2 x6 | %10
 [C,G,]2 [C,G,]2 [C,G,] [C,G,]3 | G,2 G,2 G,2 z [B,,G,] | %12
 [D,F,][D,F,][D,F,][D,F,] [D,G,]2 [D,F,]2 | G,B,- B,4 G,2 | G,2 [C,G,]2 [C,G,] [C,G,]3 | %15
 G,2 G,2 [B,,G,]3 [B,,G,] | [D,F,][D,F,][D,F,][D,F,] [D,A,]2 [D,C]2 |] [G,,G,B,]6 |] %18
V:4
 x10 | x8 | x8 | x8 | x8 | x8 | x8 | x8 || x6 | x8 | x8 | G,2 G,2 G,2 x2 | x8 | G,6 G,2 | G,2 x6 | %15
 G,2 G,2 x4 | x8 |] x6 |] %18

